assets/images/Giselle-Favicon.svg

<svg fill="none" height="90" viewBox="0 0 90 90" width="90" xmlns="http://www.w3.org/2000/svg" xmlns:xlink="http://www.w3.org/1999/xlink"><clipPath id="a"><path d="m0 0h90v90h-90z"/></clipPath><g clip-path="url(#a)"><path d="m90 0h-90v90h90z" fill="#9f4837"/><g fill="#fff"><path d="m53.7398 38.1997c-.216-.294-1.0838 1.3703-1.0838 1.3703-1.011 1.539-2.22 2.9857-3.3277 4.4527.4162-1.7962.5317-3.678 1.0185-5.4585.0915-.3352.3817-1.2877.6142-1.494.147-.1305 1.137-.483.6353-.873-.4913-.3825-1.1093.5205-1.38.8565-.6315.7845-1.0508 1.5315-1.8443 2.2185-5.5267 4.7843-15.3915 4.2218-13.3567-5.3062 1.2187-5.7075 6.8805-12.993 13.1212-13.3275 3.0885-.165 5.823 1.8075 5.5605 5.1-.048.6015-.603 1.9732.0578 2.3227.7462.3945 1.038-1.161 1.0837-1.641.2753-2.8845-1.5615-5.5972-4.3612-6.3532-5.6565-1.527-11.361 3.7942-13.8893 8.3422-1.671 3.0053-3.3855 8.1315-1.6867 11.3715 2.8402 5.415 11.2905 3.3045 14.5785-.588l-1.1303 6.3428c-3.627 5.3167-7.6635 11.469-9.4102 17.7277-.471 1.6883-1.2683 6.3045 1.125 6.9233 2.7637.7147 4.3177-3.4853 4.9305-5.4675 1.9522-6.3128 2.751-13.179 4.1235-19.6418 1.0867-1.761 2.4315-3.3502 3.621-5.0422.7237-.9975 1.2157-1.5435.9997-1.8375zm-7.899 20.313c-.585 2.6438-1.785 9.4478-4.155 10.8705-1.3515.8115-2.358.2355-2.748-1.2112-.8025-2.9798 1.1032-7.4183 2.3505-10.1483 1.8742-4.1017 4.215-8.0002 6.8887-11.6242-.6585 4.059-1.449 8.1-2.3362 12.1132z"/><path d="m55.1187 35.9731c1.0155.1867.9593-1.3403.0128-1.0568-.4493.135-.5303.9615-.0128 1.0568z"/></g></g></svg>

<svg width="90" height="90" viewBox="0 0 90 90" fill="none" xmlns="http://www.w3.org/2000/svg">
<g clip-path="url(#clip0_557_2)">
<path d="M90 0H0V90H90V0Z" fill="#9F4837"/>
<path d="M53.7398 38.1997C53.5238 37.9057 52.656 39.57 52.656 39.57C51.645 41.109 50.436 42.5557 49.3283 44.0227C49.7445 42.2265 49.86 40.3447 50.3468 38.5642C50.4383 38.229 50.7285 37.2765 50.961 37.0702C51.108 36.9397 52.098 36.5872 51.5963 36.1972C51.105 35.8147 50.487 36.7177 50.2163 37.0537C49.5848 37.8382 49.1655 38.5852 48.372 39.2722C42.8453 44.0565 32.9805 43.494 35.0153 33.966C36.234 28.2585 41.8958 20.973 48.1365 20.6385C51.225 20.4735 53.9595 22.446 53.697 25.7385C53.649 26.34 53.094 27.7117 53.7548 28.0612C54.501 28.4557 54.7928 26.9002 54.8385 26.4202C55.1138 23.5357 53.277 20.823 50.4773 20.067C44.8208 18.54 39.1163 23.8612 36.588 28.4092C34.917 31.4145 33.2025 36.5407 34.9013 39.7807C37.7415 45.1957 46.1918 43.0852 49.4798 39.1927L48.3495 45.5355C44.7225 50.8522 40.686 57.0045 38.9393 63.2632C38.4683 64.9515 37.671 69.5677 40.0643 70.1865C42.828 70.9012 44.382 66.7012 44.9948 64.719C46.947 58.4062 47.7458 51.54 49.1183 45.0772C50.205 43.3162 51.5498 41.727 52.7393 40.035C53.463 39.0375 53.955 38.4915 53.739 38.1975L53.7398 38.1997ZM45.8408 58.5127C45.2558 61.1565 44.0558 67.9605 41.6858 69.3832C40.3343 70.1947 39.3278 69.6187 38.9378 68.172C38.1353 65.1922 40.041 60.7537 41.2883 58.0237C43.1625 53.922 45.5033 50.0235 48.177 46.3995C47.5185 50.4585 46.728 54.4995 45.8408 58.5127Z" fill="white"/>
<path d="M55.1187 35.9731C56.1342 36.1598 56.078 34.6328 55.1315 34.9163C54.6822 35.0513 54.6012 35.8778 55.1187 35.9731Z" fill="white"/>
</g>
<defs>
<clipPath id="clip0_557_2">
<rect width="90" height="90" fill="white"/>
</clipPath>
</defs>
</svg>
